X:1
T:25 Lieder
T:Brautlied
T:13. Brautlied 
T:Corona Elisabeth Wilhelmine Schröter
T:Johann Gottfried Herder (after Volkslieder)
T:25 Lieder
T:NOTES TO TRANSCRIBER: 1. Full German text for the extra lyric verses of Brautlied is available on Lieder.net: https://www.lieder.net/lieder/get_text.html?TextId=72319 2. Please transcribe into the Soprano clef, as published in the original IMSLP edition: the reviewer will convert staves to Treble clef before the score is published to the Lieder Corpus. 3. In the Piano RH, you can notate the two voices as a chord in a single voice where the rhythm is the same in both voices. 4. The position of the system break has been changed deliberately to provide a more balanced layout. 
T:Creative Commons copyright waiver (CC0 1.0 Universal)
C:Corona Elisabeth Wilhelmine Schröter
Z:Johann Gottfried Herder (after Volkslieder)
Z:Creative Commons copyright waiver (CC0 1.0 Universal)
L:1/8
Q:1/4=71
M:6/8
K:F
V:1 alto1 nm="Singstimme\nVoice"
V:1
"^Unschuldig, und etwas langsam" F F G | A3/2 B/ A{A} G>F G | A2 F A A B | c3/2 d/ c{c} B>c A | %4
w: Ich hab's ge-|sa- get schon mei- * ner|Mut- ter, schon auf- ge-|sa- get von Som- * mers|
{B} A2 G G G A | B2 G A A B | c2 A c f c | c3/2 B/ A{A} c>A G |{G} F2 F |] %9
w: Mit- te. Such', lie- be|Mut- ter, dir nur ein|Mäd- chen, ein Spin- ner-|mäd- chen, ein We- * ber-|mäd- chen.|

